!!!OTL: Das Meydenburger Lied. / (Auf Magdeburgs Eroberung 1551.)
!!!ARE: Europa, Mitteleuropa, Deutschland
!!!SCT: A0405
!!!TXL: @@NDS
!!!YEM: Copyright 1995, estate of Helmut Schaffrath.
**kern	**text	**text
*M4/2	*	*
*met(c|)	*	*
*k[b-]	*	*
*F:ion	*	*
!LO:TX:a:t=jon.	!	!
{1f	A._O	B._O
=1	=1	=1
2f	Mei_de-	Mag_de-
2g	-borch,	-burg,
2a	holt	halt
2b-/	di	dich
=2	=2	=2
1cc	ve-	fe-
2cc}	-ſte,	-ſte,
{2cc	du	du
=3	=3	=3
2b-/	wol	wol
2a	ge-	ge-
2b-/	-bu-	-baw-
(4cc	-wede	-tes
4b-)	.	.
=4	=4	=4
1a	hus!	haus!
2r}	.	.
{2a	Dar	Es
=5	=5	=5
2a\	ka_men	kom_men
2cc	vel	vil
2b-	fröm-	frem-
2a	-der	-de
=6	=6	=6
(2.g	ge-	ge-
4f)	.	.
2e}	-ſte,	-ſte,
{2f	de	die
=7	=7	=7
2a	wil_len	wöl_len
2b-/	di	dich
2a	dri-	ja-
2g	-ven	-gen
=8	=8	=8
1f}	ut.	aus.
==	==	==
!!!GTL: Einige historisch-politische Lieder
!!!AGN: Romanze, Ballade, Lied, Kriegslied
!! Coelner Gsgb. 1610.
!!!ONB: ESAC (Essen Associative Code) Database: ALTDEU
!!!AMT: simple quadruple
!!!AIN: vox
!!!EED: Helmut Schaffrath
!!!EEV: 1.0
!!!AMD: Ionian
!!!URL-scan: https://rosdok.uni-rostock.de/mcrviewer/recordIdentifier/rosdok_ppn738218359/iview2/phys_0576.iview2?x=60.41678740461725&y=1092.202285957057&scale=0.7083010262257697&rotation=0&layout=singlePageLayout
!!!ENC: Anna Maria Matuszewska
!!!EEV: 2024/15/03
*-	*-	*-
